src/images_karasa_jaga_svg/cmd/sc_fontworkshapetype.fontwork-curve-down.svg

<svg height="16" viewBox="0 0 16 16" width="16" xmlns="http://www.w3.org/2000/svg" xmlns:xlink="http://www.w3.org/1999/xlink"><linearGradient id="a" gradientUnits="userSpaceOnUse" x1="64" x2="64" y1="128" y2="0"><stop offset="0" stop-color="#fff"/><stop offset=".46428573" stop-color="#fff"/><stop offset=".78125" stop-color="#f1f1f1"/><stop offset=".90625" stop-color="#eaeaea"/><stop offset="1" stop-color="#dfdfdf"/></linearGradient><linearGradient id="b" gradientUnits="userSpaceOnUse" x1="64" x2="64" y1="128" y2="0"><stop offset="0" stop-color="#7c9fcf"/><stop offset=".5" stop-color="#7c9ece"/><stop offset="1" stop-color="#7b9dcf"/></linearGradient><g transform="matrix(-.125 0 0 .125 16 .001329)"><path d="m119.76562 2.6425781a7.8165589 7.8165589 0 0 0 -7.23632 5.5136719c-7.64374 24.880435-22.219569 37.751375-45.150394 39.943359-24.832225 2.373741-41.604072-2.55858-53.25-17.271484a7.8165589 7.8165589 0 0 0 -13.94531225 4.851563v39.595703a7.8165589 7.8165589 0 0 0 1.15039065 4.082031c22.8502456 37.312098 52.9099226 47.141728 76.9316406 45.876958 12.010859-.63239 22.522085-3.73739 30.443355-6.77344 3.96064-1.51803 7.28193-3.02701 9.76954-4.20117 2.4876-1.17417 4.78103-2.16913 4.04492-1.91797a7.8165589 7.8165589 0 0 0 5.29297-7.39649v-94.494138a7.8165589 7.8165589 0 0 0 -8.05079-7.8085939z" fill="url(#b)"/><path d="m120 10.452008c-8.31103 27.052493-26.11093 42.96681-51.876955 45.429815-26.319205 2.515883-46.631498-3.157225-60.1230397-20.201788v39.595354c43.2882357 70.685241 105.6556047 31.834211 111.9999947 29.669501z" fill="url(#a)"/></g></svg>

<?xml version="1.0" encoding="UTF-8" standalone="no"?>
<!-- Created with Inkscape (http://www.inkscape.org/) -->

<svg
   xmlns:dc="http://purl.org/dc/elements/1.1/"
   xmlns:cc="http://creativecommons.org/ns#"
   xmlns:rdf="http://www.w3.org/1999/02/22-rdf-syntax-ns#"
   xmlns:svg="http://www.w3.org/2000/svg"
   xmlns="http://www.w3.org/2000/svg"
   xmlns:xlink="http://www.w3.org/1999/xlink"
   xmlns:sodipodi="http://sodipodi.sourceforge.net/DTD/sodipodi-0.dtd"
   xmlns:inkscape="http://www.inkscape.org/namespaces/inkscape"
   version="1.1"
   id="svg2"
   width="128"
   height="128"
   viewBox="0 0 128 128"
   sodipodi:docname="sc_fontworkshapetype.fontwork-curve-down.svg"
   inkscape:export-filename="/home/rizmut/Dokumen/Rizmut/Github/libreoffice-style-karasa-jaga/build/images_karasa_jaga/cmd/sc_fontworkshapetype.fontwork-curve-down.png"
   inkscape:export-xdpi="12"
   inkscape:export-ydpi="12"
   inkscape:version="0.92.3 (unknown)">
  <metadata
     id="metadata8">
    <rdf:RDF>
      <cc:Work
         rdf:about="">
        <dc:format>image/svg+xml</dc:format>
        <dc:type
           rdf:resource="http://purl.org/dc/dcmitype/StillImage" />
        <dc:title></dc:title>
      </cc:Work>
    </rdf:RDF>
  </metadata>
  <defs
     id="defs6">
    <linearGradient
       id="linearGradient7422">
      <stop
         style="stop-color:#7c9fcf;stop-opacity:1"
         offset="0"
         id="stop7424" />
      <stop
         id="stop5348"
         offset="0.5"
         style="stop-color:#7c9ece;stop-opacity:1" />
      <stop
         id="stop7426"
         offset="1"
         style="stop-color:#7b9dcf;stop-opacity:1" />
    </linearGradient>
    <linearGradient
       id="linearGradient3369">
      <stop
         id="stop3372"
         offset="0"
         style="stop-color:#ffffff;stop-opacity:1;" />
      <stop
         style="stop-color:#ffffff;stop-opacity:1;"
         offset="0.46428573"
         id="stop3374" />
      <stop
         style="stop-color:#f1f1f1;stop-opacity:1;"
         offset="0.78125"
         id="stop3376" />
      <stop
         id="stop3378"
         offset="0.90625"
         style="stop-color:#eaeaea;stop-opacity:1;" />
      <stop
         id="stop3384"
         offset="1"
         style="stop-color:#dfdfdf;stop-opacity:1;" />
    </linearGradient>
    <linearGradient
       inkscape:collect="always"
       xlink:href="#linearGradient3369"
       id="linearGradient1968"
       x1="64"
       y1="128"
       x2="64"
       y2="0"
       gradientUnits="userSpaceOnUse" />
    <linearGradient
       inkscape:collect="always"
       xlink:href="#linearGradient7422"
       id="linearGradient1972"
       gradientUnits="userSpaceOnUse"
       x1="64"
       y1="128"
       x2="64"
       y2="0" />
  </defs>
  <sodipodi:namedview
     pagecolor="#ffffff"
     bordercolor="#666666"
     borderopacity="1"
     objecttolerance="10"
     gridtolerance="10"
     guidetolerance="10"
     inkscape:pageopacity="0"
     inkscape:pageshadow="2"
     inkscape:window-width="1366"
     inkscape:window-height="706"
     id="namedview4"
     showgrid="true"
     inkscape:snap-page="true"
     inkscape:snap-global="true"
     inkscape:zoom="1.7320077"
     inkscape:cx="-54.78689"
     inkscape:cy="70.193573"
     inkscape:window-x="0"
     inkscape:window-y="0"
     inkscape:window-maximized="1"
     inkscape:current-layer="svg2">
    <inkscape:grid
       type="xygrid"
       id="grid812"
       spacingx="8"
       spacingy="8"
       empspacing="2" />
  </sodipodi:namedview>
  <g
     id="g1997"
     transform="matrix(-1,0,0,1,128,0)">
    <path
       d="M 119.76562,2.6425781 A 7.8165589,7.8165589 0 0 0 112.5293,8.15625 C 104.88556,33.036685 90.309731,45.907625 67.378906,48.099609 42.546681,50.47335 25.774834,45.541029 14.128906,30.828125 A 7.8165589,7.8165589 0 0 0 0.18359375,35.679688 V 75.275391 A 7.8165589,7.8165589 0 0 0 1.3339844,79.357422 C 24.18423,116.66952 54.243907,126.49915 78.265625,125.23438 c 12.010859,-0.63239 22.522085,-3.73739 30.443355,-6.77344 3.96064,-1.51803 7.28193,-3.02701 9.76954,-4.20117 2.4876,-1.17417 4.78103,-2.16913 4.04492,-1.91797 a 7.8165589,7.8165589 0 0 0 5.29297,-7.39649 V 10.451172 a 7.8165589,7.8165589 0 0 0 -8.05079,-7.8085939 z"
       id="path1970"
       style="opacity:1;fill:url(#linearGradient1972);fill-opacity:1;stroke:none;stroke-width:5.77981424;stroke-linecap:round;stroke-linejoin:bevel;stroke-miterlimit:4;stroke-dasharray:none;stroke-dashoffset:0;stroke-opacity:1"
       inkscape:original="M 120 10.451172 C 111.68897 37.503665 93.889072 53.417854 68.123047 55.880859 C 41.803842 58.396742 21.491542 52.724251 8 35.679688 L 8 75.275391 C 51.288236 145.96063 113.65561 107.11002 120 104.94531 L 120 10.451172 z "
       inkscape:radius="7.8157773"
       sodipodi:type="inkscape:offset" />
    <path
       inkscape:connector-curvature="0"
       id="rect3937-2"
       d="M 120,10.452008 C 111.68897,37.504501 93.88907,53.418818 68.123045,55.881823 41.80384,58.397706 21.491547,52.724598 8.0000053,35.680035 V 75.275389 C 51.288241,145.96063 113.65561,107.1096 120,104.94489 Z"
       style="opacity:1;fill:url(#linearGradient1968);fill-opacity:1;stroke:none;stroke-width:5.77981424;stroke-linecap:round;stroke-linejoin:bevel;stroke-miterlimit:4;stroke-dasharray:none;stroke-dashoffset:0;stroke-opacity:1" />
  </g>
</svg>
